!!!!SEGMENT: pl-sa--l-1636--070_anonim--fantasia.krn
!!!cenid: 17xx:777
!!!COM: Anonim
!!!COM-rismID: pe30004985
!!!CDT:
!!!CNT:
!!!OTL: Fantasia
!!!PDT:
!!!AGN: Secular; Fantasy
!!!SMS-siglum: PL-SA
!!!SMS-shelfmark: L 1636
!!!SMS-shelfwork: 070 W
!!!SMS-variant:
!!!SMS-altvar:
!!!NIFC-rismSourceID: 1001076910
!!!NIFC-rismChildID: 1001076910
!!!NIFC-islandoraID:
!!!URL-pdf-islandora:
!!!URL-scan:
!!!IIIF:
!!!ONB-nifc: 21r, skan 0024, s. 5-6
!!!AIN: 1 empty
!!!key:
**kern	**fb	**kern
*part1	*	*part1
*staff2	*	*staff1
*Iempty	*	*Iempty
*I"[Keyboard]	*	*
*I'keyb	*	*
*clefC4	*	*clefC1
*k[]	*	*k[]
*C:	*	*C:
*M2/2	*	*M2/2
*met(c|)	*	*met(c|)
=1	=1	=1
*	*above	*
!LO:TX:i:a:t=Fantaſia	!	!
1r	.	2g/
.	.	4a\
.	.	4f/
=2	=2	=2
2c\	.	4g/
.	.	4e/
4d\	.	4f/
4B\	6	4g/
=3	=3	=3
4c\	.	4e/
4A\	6	4f/
4B\	6	4g/
4c\	.	4e/
=4	=4	=4
*^	*	*^
4c/	2G\	.	2d/	2ryy
4B/	.	.	.	.
4A\	2ryy	.	4e/	4c\
4F\	.	.	4a/	4f\
*	*	*	*v	*v
=5	=5	=5	=5
4B/	4G\	.	2g/
4c/	4E\	.	.
4A/	4F\	.	8f/L
.	.	.	8e/J
4B/	4G\	.	4d/
*v	*v	*	*
*clefF4	*	*
=6	=6	=6
*	*	*^
*	*	*	*2\right
2C/	.	2e/	2c\
4D/	.	4f/	2d\
4BB/	6	4g/	.
=7	=7	=7	=7
4C/	.	4e/	2c\
4AA/	.	4f/	.
4BB/	.	4d/	2B\
4GG/	.	4e/	.
!!LO:LB:g=original
=8	=8	=8	=8
4AA/	.	4c/	2A\
4FF/	.	4d/	.
2GG/	.	2d/	2B\
*	*	*v	*v
=9	=9	=9
*^	*	*
4.CC/	1C	.	8c/L
.	.	.	8d/
.	.	.	8e/
8DD/	.	.	8f/J
4EE\	.	.	8g/L
.	.	.	16a/L
.	.	.	16g/JJ
4FF\	.	.	8f/L
.	.	.	8e/J
=10	=10	=10	=10
4BB/	1GG	.	4d/
[>4C/	.	.	4e/
4C/]	.	.	2dM/
4BB/	.	.	.
*v	*v	*	*
=11	=11	=11
1C 1CC	.	16c/LL
.	.	16G/
.	.	16A/
.	.	16B/JJ
!	!	!LO:TX:a:t=P:problem=mixed beam
.	.	16c/LL
.	.	16g\
.	.	16a/
.	.	16b\JJ
!	!	!LO:TX:a:t=P:problem=mixed beam
.	.	16cc\LL
.	.	16e/
.	.	16g/
.	.	16c/JJ
.	.	16e/LL
.	.	16d/
.	.	16c/
.	.	16B/JJ
=12	=12	=12
!LO:TX:a:t=P:problem=nuta nieczytelna - wyżarty papier	!	!
1Cyy 1GG 1EE 1CC	.	1e 1c 1G
!LO:TX:a:t=P:||:problem=w źródle końcowa kreska taktowa 	!	!LO:TX:a:t=P:||:problem=w źródle końcowa kreska taktowa 
==;;	==	==;;
*-	*-	*-
!!!system-decoration: s1,s2
!!!EED: Antoni Szymański
!!!EEV: 2020-12-08
!!!ENC: Tomasz Grochalski
!!!END: 2020-06-12
!!!YEC: Copyright 2022 Narodowy Instytut Fryderyka Chopina (https://polishscores.org)
!!!YEM: License CC-BY-4.0 (https://creativecommons.org/licenses/by/4.0)
